X:1
T:Paratum cor meum
T:Paratum cor meum
T:Giovanni Girolamo Kapsperger
T:Source : Libro primo di mottetti passeggiati a una voce---Roma---1612. Racolta del Sig.Francesco de Nobili Editor : André Vierendeels (19/10/15).
T:Notes : Original clefs : C1, F4 Figures in BC are notated in Ms Note values have been halved in 3-beat measures
C:Giovanni Girolamo Kapsperger
%%score 1 2
L:1/8
Q:1/4=75
M:4/4
K:C
V:1 treble nm="Soprano" snm="S"
V:2 bass nm="BC" snm="BC"
V:1
 z2 A2 A4 | A6 A2 | c4 ^G4 | A8 | A6 e2 | e4 e4- | e2 e/f/4g/4f e4 | d6 D D/E/ | %8
w: Pa- ra-|tum cor|me- um|De-|us, pa-|ra- tum|_ cor _ _ _ me-|um, can- ta- *|
 D/E/F/G/ F/G/A/B/ A/B/c/B/ c/A/B/c/ | d4 B4 | z/ E/F/G/ A/B/c/d/ e4 | A4 B B>cd | %12
w: |* bo|et _ _ _ _ _ _ psal-|lam in glo- * *|
 ^G>A B E3 ^F/4G/4A/4B/4c/4d/4e/ | D E3 ^F/G/A/B/ c/d/c/>d/ | ^G2 A4 G2 |[M:3/4] A4 e2 | f4 e2 | %17
w: * * * * * * * * * * ri-|a me- * * * * * * * *||a, ex-|ur- ge|
 c2 c2 d2 |[M:4/4] e8 | d4 BABc | d4 A4 | AGAB c3 B | B4 B/c/d/e/ d/c/B/c/ | %23
w: glo- ri- a|me-|a, ex- * * *|ur- ge|psal- * * * te- ri-|um et _ _ _ _ _ _ _|
 A/B/c/d/ c/B/A/B/ G/A/B/G/ A/B/c | G/A/B/c/ d/e/ d3 e/f/e | d6 c2 | c6 B2 | c4 B4- | B2 B2 e4- | %29
w: _ _ _ _ _ _ _ _ _ _ _ _ _ _ _||ci- tha-|ra, ex-|ur- gam,|_ ex- ur-|
 e2 G4 A2 | A6 G2 | G8 | B6 ^c2 | d6 c2 | B4 B2 c2 | cBAG A3 A | A6 DE | FGAB cBcA | B2 c4 B2 | %39
w: * gam di-|li- cu-|lo,|con- fi-|te- bor|ti- bi in|po- * * * * pu-|lis Do- *||* * mi-|
 c8 | e2 e/d/c/B/ c/B/A/^G/ A/E/^F/G/ | A/B/c/d/ e/c/d/e/ f/e/d/c/ B/c/d/e/ | %42
w: ne|et psal- * * * * * * * * * * *||
 c/d/B/c/ A/B/c/B/ c/A/B/^c/ d/c/d/B/ | ^c2 d2 d2 c2 | d>A D/E/F/G/ A/B/c/A/ B/c/d/A/ | %45
w: |lam _ ti- bi|_ in na- * * * * * * * * * * *|
 B/c/d/e/ f/c/d/e/ f/e/d/c/ B/A/G/F/ | E/F/G/F/ G/E/^F/G/ A/G/A/F/ G/A/B | %47
w: ||
 E/4^F/4G/4A/4B/4c/4 B2 c/4d/4 c2 d/e/^G- | GA/B/ E3 ^F/^G/ A/G/A/F/ | ^G2 A2 A3 G | !fermata!A8 |] %51
w: ||* ti- o- ni-|bus.|
V:2
 A,,8- | A,,8 | A,,4 E,4 | D,8 |"^#" A,,8- | A,,8- |"^#" A,,2 G,,2 A,,4 | D,8- | D,8 | D,4 E,4- | %10
 E,4 ^C,4 | D,8 | E,8- | E,8- | E,8 |[M:3/4] A,,4 C2 | F,4 G,2 | A,2 A,2 B,2 |[M:4/4] C8 | G,8 | %20
 D,4 F,4- | F,4 C,4 | G,,4 G,4 | F,4 E,4- | E,4 G,4 | G,8 | C,8 | A,,4 E,4- | E,4 C,4 | B,,4 ^C,4 | %30
 D,8 | G,,8 | G,4 E,4 | D,4 A,,4 | E,8 | F,8- | F,8- | F,8 | E,4 D,4 | C,8 | C,8- | C,4 D,4 | D,8 | %43
 A,,8 | D,8- | D,8 | E,8 | E,8- | E,8- | E,8 | !fermata!A,,8 |] %51

